Suru++-Ubuntu/apps/symbolic/doublecmd-symbolic.svg

<svg width="16" height="16" version="1.1" viewBox="0 0 4.23 4.23" xmlns="http://www.w3.org/2000/svg">
 <g transform="translate(0,-292.76665)">
  <g transform="matrix(.09375 0 0 .09375 -1.0607606 270.2901)" style="fill:#808080">
   <path transform="matrix(.26458333 0 0 .26458333 21.33969 248.60338)" d="m-32.556092-14.262155v22.222221a44.444442 44.444442 0 0 1 44.444442 44.444442 44.444442 44.444442 0 0 1-44.444442 44.444442v22.22222a66.666663 66.666663 0 0 0 66.666663-66.666662 66.666663 66.666663 0 0 0-66.666663-66.666663z" style="fill:#808080"/>
   <g transform="matrix(-.58796292 0 0 .58796292 63.878668 234.24652)" style="fill:#808080">
    <path d="m15 18v10a20 20 0 0 1 20 20 20 20 0 0 1-20 20v10a30 30 0 0 0 30-30 30 30 0 0 0-30-30z" style="fill:#808080"/>
   </g>
  </g>
 </g>
</svg>

<svg xmlns="http://www.w3.org/2000/svg" width="16" height="16" version="1.1" viewBox="0 0 4.23 4.23">
 <g transform="translate(0,-292.76665)">
  <g style="fill:#808080" transform="matrix(0.09375,0,0,0.09375,-1.0607606,270.2901)">
   <path d="M -32.556092,-14.262155 V 7.9600657 A 44.444442,44.444442 0 0 1 11.88835,52.404508 44.444442,44.444442 0 0 1 -32.556092,96.84895 v 22.22222 A 66.666663,66.666663 0 0 0 34.110571,52.404508 66.666663,66.666663 0 0 0 -32.556092,-14.262155 Z" transform="matrix(0.26458333,0,0,0.26458333,21.33969,248.60338)" style="fill:#808080"/>
   <g style="fill:#808080" transform="matrix(-0.58796292,0,0,0.58796292,63.878668,234.24652)">
    <path style="fill:#808080" d="M 15,18 V 28 A 20,20 0 0 1 35,48 20,20 0 0 1 15,68 V 78 A 30,30 0 0 0 45,48 30,30 0 0 0 15,18 Z"/>
   </g>
  </g>
 </g>
</svg>
